flaticon/design/square-7.svg

<svg xmlns="http://www.w3.org/2000/svg" width="32" height="32" viewBox="0 0 24 24">
    <path d="M 9.199219 22 L 22 22 L 22 2 L 2 2 L 2 22 Z M 21.199219 21.199219 L 15.601562 21.199219 L 15.601562 15.601562 L 21.199219 15.601562 Z M 21.199219 14.800781 L 15.601562 14.800781 L 15.601562 9.199219 L 21.199219 9.199219 Z M 15.601562 2.800781 L 21.199219 2.800781 L 21.199219 8.398438 L 15.601562 8.398438 Z M 9.199219 2.800781 L 14.800781 2.800781 L 14.800781 21.199219 L 9.199219 21.199219 Z M 2.800781 21.199219 L 2.800781 2.800781 L 8.398438 2.800781 L 8.398438 21.199219 Z M 2.800781 21.199219"/>
    <path d="M 0 0 L 0 24 L 24 24 L 24 0 Z M 23.199219 23.199219 L 0.800781 23.199219 L 0.800781 0.800781 L 23.199219 0.800781 Z M 23.199219 23.199219"/>
</svg>

<svg xmlns="http://www.w3.org/2000/svg" width="32" height="32" viewBox="0 0 24 24">
    <path d="M9.2 22H22V2H2v20zm12-.8h-5.598v-5.598h5.597zm0-6.4h-5.598V9.2h5.597zm-5.598-12h5.597v5.598h-5.597zm-6.403 0h5.602v18.4H9.199zM2.801 21.2V2.8h5.597v18.4zm0 0"/>
    <path d="M0 0v24h24V0zm23.2 23.2H.8V.8h22.4zm0 0"/>
</svg>
